X: 12
T: JOHNNY GET YOUR HAIR CUT
S: "Community Dances Manual 6", EFDSS, Jack Hamilton ed., 1981 p.7
R: reel
Z: 2010 John Chambers <jc:trillian.mit.edu>
M: 4/4
L: 1/8
K: D
"A"[|]\
A2 |\
"D"dfed B2A2 | "D"B2A2 "A7"F2A2 | "D"dfed B2AA | "A7"B2c2 "D"d2A2 |\
"D"dfed B2A2 | "D"B2A2 "A7"F2A2 | "D"dfed B2AA | "A7"B2c2 "D"d2  :|
"B"\
|: "D"d2f2 a3a | "G"b2a2 "A7"f2e2 | "D"defg a2a2 | "G"b2a2 "A7"f3e |\
"D"d2f2 a3a | "G"b2a2 "A7"f2e2 | "Bm"dfed "Em"B2A2 | "A"B2c2 "D"d2A2 :|
"C"\
|: "D"D2FG A2Bc | "D"d2d2 F3B | "A7"A2A2 E3B | "D"A2A2 "A7"F2E2 |\
   "D"DEFG A2Bc | "D"d2d2 F3B | "A7"A2A2 E2FE | "D"D4 D2 :|

%%sep 2 1 500
%%sep 1 1 500

